src/assets/images/image_widget.svg

<svg height="100" viewBox="0 0 150 100" width="150" xmlns="http://www.w3.org/2000/svg"><g fill="none" fill-rule="evenodd"><path d="m37 22h77v57h-77z" stroke="#ff6b6b" stroke-width="2"/><g transform="translate(49 32)"><path d="m17.9553862 6.36421539 9.1386108 15.89870161c.1124537.1956392.3553354.2467457.5356072.1190273l7.7522021-5.4922589c.3628572-.2570762.8460555-.1673923 1.0883608.2146743l14.0889717 16.5616249c.2382279.3756373.0659818.6801518-.3546526.6801518h-49.54731609c-.43525573 0-.62436621-.318052-.41883166-.7173009l16.94130105-27.25448093c.2039413-.39615434.5553067-.39364483.7757467-.01013918zm25.7850444 2.92424615c2.3247488 0 4.2093302-1.89848479 4.2093302-4.24038462 0-2.34189985-1.8845814-4.24038461-4.2093302-4.24038461s-4.2093301 1.89848476-4.2093301 4.24038461c0 2.34189983 1.8845813 4.24038462 4.2093301 4.24038462z" fill="#ff6b6b"/><path d="m17.9553862 6.36421539 9.1386108 15.89870161c.1124537.1956392.3553354.2467457.5356072.1190273l7.7522021-5.4922589c.3628572-.2570762.8460555-.1673923 1.0883608.2146743l14.0889717 16.5616249c.2382279.3756373.0659818.6801518-.3546526.6801518h-49.54731609c-.43525573 0-.62436621-.318052-.41883166-.7173009l16.94130105-27.25448093c.2039413-.39615434.5553067-.39364483.7757467-.01013918zm25.7850444 2.92424615c2.3247488 0 4.2093302-1.89848479 4.2093302-4.24038462 0-2.34189985-1.8845814-4.24038461-4.2093302-4.24038461s-4.2093301 1.89848476-4.2093301 4.24038461c0 2.34189983 1.8845813 4.24038462 4.2093301 4.24038462z"/></g></g></svg>

<?xml version="1.0" encoding="UTF-8"?>
<svg width="150px" height="100px" viewBox="0 0 150 100" version="1.1" xmlns="http://www.w3.org/2000/svg" xmlns:xlink="http://www.w3.org/1999/xlink">
    <!-- Generator: Sketch 47.1 (45422) - http://www.bohemiancoding.com/sketch -->
    <title>image</title>
    <desc>Created with Sketch.</desc>
    <defs></defs>
    <g id="Page-1" stroke="none" stroke-width="1" fill="none" fill-rule="evenodd">
        <g id="image">
            <g id="Group" transform="translate(38.000000, 23.000000)">
                <rect id="Rectangle-5" stroke="#FF6B6B" stroke-width="2" x="-1" y="-1" width="77" height="57"></rect>
                <g id="editor-images-pictures-photos-collection-glyph" transform="translate(11.000000, 9.000000)">
                    <g id="path-1-link" fill="#FF6B6B">
                        <path d="M17.9553862,6.36421539 L27.093997,22.262917 C27.2064507,22.4585562 27.4493324,22.5096627 27.6296042,22.3819443 L35.3818063,16.8896854 C35.7446635,16.6326092 36.2278618,16.7222931 36.4701671,17.1043597 L50.5591388,33.6659846 C50.7973667,34.0416219 50.6251206,34.3461364 50.2044862,34.3461364 L0.657170112,34.3461364 C0.221914375,34.3461364 0.032803904,34.0280844 0.238338451,33.6288355 L17.1796395,6.37435457 C17.3835808,5.97820023 17.7349462,5.98070974 17.9553862,6.36421539 Z M43.7404306,9.28846154 C46.0651794,9.28846154 47.9497608,7.38997675 47.9497608,5.04807692 C47.9497608,2.70617707 46.0651794,0.807692308 43.7404306,0.807692308 C41.4156818,0.807692308 39.5311005,2.70617707 39.5311005,5.04807692 C39.5311005,7.38997675 41.4156818,9.28846154 43.7404306,9.28846154 Z" id="path-1"></path>
                    </g>
                    <path d="M17.9553862,6.36421539 L27.093997,22.262917 C27.2064507,22.4585562 27.4493324,22.5096627 27.6296042,22.3819443 L35.3818063,16.8896854 C35.7446635,16.6326092 36.2278618,16.7222931 36.4701671,17.1043597 L50.5591388,33.6659846 C50.7973667,34.0416219 50.6251206,34.3461364 50.2044862,34.3461364 L0.657170112,34.3461364 C0.221914375,34.3461364 0.032803904,34.0280844 0.238338451,33.6288355 L17.1796395,6.37435457 C17.3835808,5.97820023 17.7349462,5.98070974 17.9553862,6.36421539 Z M43.7404306,9.28846154 C46.0651794,9.28846154 47.9497608,7.38997675 47.9497608,5.04807692 C47.9497608,2.70617707 46.0651794,0.807692308 43.7404306,0.807692308 C41.4156818,0.807692308 39.5311005,2.70617707 39.5311005,5.04807692 C39.5311005,7.38997675 41.4156818,9.28846154 43.7404306,9.28846154 Z" id="path-1"></path>
                </g>
            </g>
        </g>
    </g>
</svg>
